X:1
T:Green Mountain Petronella
R:reel
Z:John Chambers <jc@trillian.mit.edu>
M:4/4
L:1/8
K:G
D2G2 GFGE | D2B2 BGAB | c2cB ABcd | e2d2 d4 |
D2G2 GFGE | D2B2 BGAB | cdcB AGFG |1 A2G2 G2z2 :|2
A2G2 G2Bd |: g2g2 f2f2 | efge d4 | edef g2B2 | B2A2 A4 |
g2g2 f2f2 | efge d4 | edef g2B2 | B2A2 G2Bd :|
